src/sources/forus-platform/resources/_platform-common/assets/img/menu/icon-dropdown-provider.svg

<svg width="32" height="32" viewBox="0 0 32 32" fill="none" xmlns="http://www.w3.org/2000/svg">
    <g clip-path="url(#clip0_1807_8571)">
        <path d="M22.8122 19.9978C22.7716 19.9929 22.7341 19.9732 22.7071 19.9424C22.68 19.9117 22.6652 19.8721 22.6655 19.8311V16.8511C22.6655 16.6743 22.5953 16.5047 22.4703 16.3797C22.3453 16.2547 22.1757 16.1844 21.9989 16.1844C21.8221 16.1844 21.6525 16.2547 21.5275 16.3797C21.4024 16.5047 21.3322 16.6743 21.3322 16.8511V19.7978C21.3322 19.842 21.3146 19.8844 21.2834 19.9156C21.2521 19.9469 21.2097 19.9644 21.1655 19.9644H18.3322C18.2438 19.9644 18.159 19.9996 18.0965 20.0621C18.034 20.1246 17.9989 20.2094 17.9989 20.2978C17.9989 20.7711 17.1789 21.2978 15.9989 21.2978C14.8189 21.2978 13.9989 20.7711 13.9989 20.2978C13.9989 20.2094 13.9638 20.1246 13.9012 20.0621C13.8387 19.9996 13.7539 19.9644 13.6655 19.9644H10.8322C10.788 19.9644 10.7456 19.9469 10.7144 19.9156C10.6831 19.8844 10.6655 19.842 10.6655 19.7978V16.9644C10.6655 16.7876 10.5953 16.6181 10.4703 16.493C10.3453 16.368 10.1757 16.2978 9.99887 16.2978C9.82206 16.2978 9.65249 16.368 9.52747 16.493C9.40245 16.6181 9.33221 16.7876 9.33221 16.9644V19.8044C9.33272 19.8444 9.31887 19.8832 9.29317 19.9138C9.26748 19.9444 9.23164 19.9647 9.19221 19.9711C9.0396 19.9946 8.8943 20.0523 8.76727 20.1401C8.64024 20.2279 8.53479 20.3433 8.45887 20.4778C8.36724 20.6309 8.31885 20.806 8.31885 20.9844C8.31885 21.1629 8.36724 21.338 8.45887 21.4911C8.80201 22.0548 9.28483 22.5203 9.86062 22.8426C10.4364 23.165 11.0857 23.3332 11.7455 23.3311H20.2522C20.9039 23.3335 21.5454 23.1694 22.1159 22.8544C22.6864 22.5394 23.1671 22.0839 23.5122 21.5311C23.6034 21.3901 23.6577 21.2284 23.6699 21.0609C23.6821 20.8934 23.652 20.7255 23.5822 20.5727C23.5125 20.4199 23.4054 20.2872 23.2708 20.1867C23.1362 20.0862 22.9785 20.0212 22.8122 19.9978Z" fill="#646F79"/>
        <path d="M24.0002 12.2123C24.0002 12.2123 24.0002 12.2123 24.0002 12.1723L22.8268 9.33232C22.7593 9.14354 22.6369 8.97923 22.4754 8.86045C22.3138 8.74168 22.1205 8.67384 21.9202 8.66565H20.0868C20.062 8.66616 20.0376 8.67246 20.0156 8.68403C19.9936 8.6956 19.9747 8.71213 19.9602 8.73232C19.9435 8.75244 19.9318 8.7762 19.926 8.80168C19.9202 8.82715 19.9205 8.85363 19.9268 8.87898L20.8135 12.1323C20.82 12.1765 20.82 12.2214 20.8135 12.2656V14.6656C20.8126 14.7001 20.8223 14.7339 20.8414 14.7626C20.8605 14.7912 20.888 14.8133 20.9202 14.8256C21.1967 14.9359 21.4925 14.9898 21.7902 14.984C22.0879 14.9783 22.3814 14.9131 22.6535 14.7923C23.0382 14.6286 23.368 14.3584 23.6042 14.0135C23.8405 13.6687 23.9732 13.2635 23.9868 12.8456V12.219L24.0002 12.2123Z" fill="#646F79"/>
        <path d="M19.8335 12.3601C19.8372 12.3447 19.8372 12.3287 19.8335 12.3134L18.8669 8.82674C18.857 8.79142 18.8362 8.76013 18.8075 8.73737C18.7787 8.7146 18.7435 8.70155 18.7069 8.70007H16.6669C16.6227 8.70007 16.5803 8.71763 16.549 8.74889C16.5177 8.78014 16.5002 8.82254 16.5002 8.86674V15.1067C16.4986 15.1387 16.5067 15.1704 16.5233 15.1977C16.54 15.2251 16.5644 15.2468 16.5935 15.2601C17.1045 15.5095 17.6737 15.6155 18.2402 15.5667C18.8089 15.5218 19.3559 15.3288 19.8269 15.0067V12.3401L19.8335 12.3601Z" fill="#646F79"/>
        <path d="M11.1667 12.2667C11.1634 12.2224 11.1634 12.1778 11.1667 12.1334L12.0667 8.91341C12.0784 8.89073 12.0845 8.86559 12.0845 8.84007C12.0845 8.81456 12.0784 8.78942 12.0667 8.76674C12.0508 8.74641 12.0306 8.72987 12.0075 8.71834C11.9845 8.70681 11.9591 8.70057 11.9333 8.70007H10.08C9.88355 8.70561 9.69302 8.76853 9.5319 8.88108C9.37079 8.99362 9.24614 9.15086 9.17333 9.33341L8 12.0867V12.1267V12.7334C8.01119 13.1518 8.14296 13.5581 8.37949 13.9034C8.61602 14.2488 8.94723 14.5184 9.33333 14.6801C9.60544 14.8009 9.89896 14.8661 10.1966 14.8718C10.4943 14.8775 10.7901 14.8237 11.0667 14.7134C11.1041 14.7087 11.139 14.6924 11.1667 14.6667V12.2667Z" fill="#646F79"/>
        <path d="M15.5013 8.86674C15.5013 8.82254 15.4837 8.78014 15.4525 8.74889C15.4212 8.71763 15.3788 8.70007 15.3346 8.70007H13.2946C13.2568 8.70013 13.2201 8.71254 13.19 8.7354C13.1599 8.75827 13.1381 8.79034 13.128 8.82674C13.068 9.07341 12.8546 9.84007 12.1746 12.3134C12.171 12.3287 12.171 12.3447 12.1746 12.3601V14.9067C12.1749 14.9342 12.1817 14.9612 12.1944 14.9856C12.2072 15.0099 12.2255 15.0309 12.248 15.0467C12.7066 15.3424 13.2309 15.521 13.7746 15.5667H14.0413C14.5175 15.566 14.9872 15.4566 15.4146 15.2467C15.4417 15.2327 15.4646 15.2117 15.481 15.186C15.4974 15.1602 15.5067 15.1306 15.508 15.1001L15.5013 8.86674Z" fill="#646F79"/>
    </g>
    <defs>
        <clipPath id="clip0_1807_8571">
            <rect width="16" height="16" fill="white" transform="translate(8 8)"/>
        </clipPath>
    </defs>
</svg>

<svg width="32" height="32" fill="none" xmlns="http://www.w3.org/2000/svg"><g clip-path="url(#a)" fill="#646F79"><path d="M22.812 19.998a.166.166 0 0 1-.146-.167v-2.98a.667.667 0 1 0-1.334 0v2.947a.167.167 0 0 1-.166.166h-2.834a.333.333 0 0 0-.333.334c0 .473-.82 1-2 1-1.18 0-2-.527-2-1a.333.333 0 0 0-.334-.334h-2.833a.166.166 0 0 1-.167-.166v-2.834a.667.667 0 0 0-1.333 0v2.84a.167.167 0 0 1-.14.167 1.02 1.02 0 0 0-.733.507.987.987 0 0 0 0 1.013 3.833 3.833 0 0 0 3.287 1.84h8.506a3.827 3.827 0 0 0 3.26-1.8 1 1 0 0 0-.7-1.533ZM24 12.212v-.04l-1.173-2.84a1.006 1.006 0 0 0-.907-.666h-1.833a.16.16 0 0 0-.127.066.166.166 0 0 0-.033.147l.887 3.253a.458.458 0 0 1 0 .134v2.4a.167.167 0 0 0 .106.16 2.23 2.23 0 0 0 1.733-.034 2.193 2.193 0 0 0 1.334-1.946v-.627l.013-.007ZM19.834 12.36a.1.1 0 0 0 0-.047l-.967-3.486a.174.174 0 0 0-.16-.127h-2.04a.167.167 0 0 0-.167.167v6.24a.16.16 0 0 0 .093.153 3.14 3.14 0 0 0 1.647.307 3.266 3.266 0 0 0 1.587-.56V12.34l.006.02ZM11.167 12.267a.899.899 0 0 1 0-.134l.9-3.22a.16.16 0 0 0 0-.146.174.174 0 0 0-.134-.067H10.08a1.007 1.007 0 0 0-.907.633L8 12.087v.646a2.173 2.173 0 0 0 1.333 1.947 2.233 2.233 0 0 0 1.734.033.18.18 0 0 0 .1-.046v-2.4ZM15.501 8.867a.167.167 0 0 0-.166-.167h-2.04a.173.173 0 0 0-.167.127c-.06.246-.273 1.013-.953 3.486a.102.102 0 0 0 0 .047v2.547a.175.175 0 0 0 .073.14c.459.295.983.474 1.527.52h.266c.476-.001.946-.11 1.374-.32a.173.173 0 0 0 .093-.147l-.007-6.233Z"/></g><defs><clipPath id="a"><path fill="#fff" transform="translate(8 8)" d="M0 0h16v16H0z"/></clipPath></defs></svg>
